22x22/apps/appimagekit-standard-notes.svg

<svg xmlns="http://www.w3.org/2000/svg" width="22" height="22" version="1"><g transform="translate(-1 1)"><rect style="opacity:.2" width="20" height="20" x="-20.5" y="-22" rx="1.5" ry="1.5" transform="matrix(0 -1 -1 0 0 0)"/><rect style="fill:#f4f4f7" width="19.5" height="20" x="-20" y="-22" rx="1.5" ry="1.5" transform="matrix(0 -1 -1 0 0 0)"/><path style="opacity:.2" d="M2 5v.5h20V5z"/><path style="fill:#086cd6" d="M3.5 0C2.669 0 2 .669 2 1.5V5h20V1.5c0-.831-.669-1.5-1.5-1.5z"/><path style="opacity:.2" d="M5 9v1h14V9zm0 3v1h11v-1zm0 3v1h13v-1z"/><path style="opacity:.2;fill:#f4f4f7" d="M3.5 0C2.669 0 2 .669 2 1.5V2C2 1.169 2.669.5 3.5.5h17c.831 0 1.5.669 1.5 1.5v-.5c0-.831-.669-1.5-1.5-1.5z"/></g></svg>

<svg xmlns="http://www.w3.org/2000/svg" width="22" height="22" version="1">
 <g transform="translate(-1,1)">
  <rect style="opacity:0.2" width="20" height="20" x="-20.5" y="-22" rx="1.5" ry="1.5" transform="matrix(0,-1,-1,0,0,0)"/>
  <rect style="fill:#f4f4f7" width="19.5" height="20" x="-20" y="-22" rx="1.5" ry="1.5" transform="matrix(0,-1,-1,0,0,0)"/>
  <path style="opacity:0.2" d="M 2,5 V 5.5 H 22 V 5 Z"/>
  <path style="fill:#086cd6" d="M 3.5,0 C 2.669,0 2,0.669 2,1.5 V 5 H 22 V 1.5 C 22,0.669 21.331,0 20.5,0 Z"/>
  <path style="opacity:0.2" d="M 5,9 V 10 H 19 V 9 Z M 5,12 V 13 H 16 V 12 Z M 5,15 V 16 H 18 V 15 Z"/>
  <path style="opacity:0.2;fill:#f4f4f7" d="M 3.5,0 C 2.669,0 2,0.669 2,1.5 V 2 C 2,1.169 2.669,0.5 3.5,0.5 H 20.5 C 21.331,0.5 22,1.169 22,2 V 1.5 C 22,0.669 21.331,0 20.5,0 Z"/>
 </g>
</svg>
